Numix/22/mimetypes/application-vnd.geogebra.file.svg

<?xml version="1.0" encoding="UTF-8" standalone="no"?>
<svg
   xmlns:dc="http://purl.org/dc/elements/1.1/"
   xmlns:cc="http://creativecommons.org/ns#"
   xmlns:rdf="http://www.w3.org/1999/02/22-rdf-syntax-ns#"
   xmlns:svg="http://www.w3.org/2000/svg"
   xmlns="http://www.w3.org/2000/svg"
   xmlns:sodipodi="http://sodipodi.sourceforge.net/DTD/sodipodi-0.dtd"
   xmlns:inkscape="http://www.inkscape.org/namespaces/inkscape"
   width="22"
   height="22"
   viewBox="0 0 22 22"
   id="svg2"
   version="1.1"
   inkscape:version="0.91 r13725"
   sodipodi:docname="application-vnd.geogebra.file.svg">
  <metadata
     id="metadata16">
    <rdf:RDF>
      <cc:Work
         rdf:about="">
        <dc:format>image/svg+xml</dc:format>
        <dc:type
           rdf:resource="http://purl.org/dc/dcmitype/StillImage" />
        <dc:title />
      </cc:Work>
    </rdf:RDF>
  </metadata>
  <defs
     id="defs14" />
  <sodipodi:namedview
     pagecolor="#ffffff"
     bordercolor="#666666"
     borderopacity="1"
     objecttolerance="10"
     gridtolerance="10"
     guidetolerance="10"
     inkscape:pageopacity="0"
     inkscape:pageshadow="2"
     inkscape:window-width="1920"
     inkscape:window-height="1013"
     id="namedview12"
     showgrid="true"
     inkscape:zoom="45.254834"
     inkscape:cx="9.900681"
     inkscape:cy="11.435354"
     inkscape:window-x="0"
     inkscape:window-y="27"
     inkscape:window-maximized="1"
     inkscape:current-layer="svg2">
    <inkscape:grid
       type="xygrid"
       id="grid2993"
       empspacing="5"
       visible="true"
       enabled="true"
       snapvisiblegridlinesonly="true" />
  </sodipodi:namedview>
  <path
     style="fill:#6f72db;fill-opacity:1"
     d="m 4,-2e-8 c -0.472657,0 -1,0.527344 -1,1 L 3,21 c 0,0.445312 0.554687,1 1,1 l 14,0 c 0.445313,0 0.992367,-0.554753 1,-1 L 19,5.9999998 13,-2e-8 Z"
     id="path4-7"
     inkscape:connector-curvature="0"
     sodipodi:nodetypes="ssssssccs" />
  <path
     style="fill:#000000;fill-opacity:0.19599998"
     d="M 14,5.9999998 19,11 19,5.9999998 Z"
     id="path6"
     inkscape:connector-curvature="0"
     sodipodi:nodetypes="cccc" />
  <path
     style="fill:#ffffff;fill-opacity:0.39200003"
     d="M 13,-2e-8 19,5.9999998 l -5,0 c -0.445312,0 -1,-0.554688 -1,-1 z"
     id="path8"
     inkscape:connector-curvature="0"
     sodipodi:nodetypes="ccssc" />
  <path
     style="color:#000000;font-style:normal;font-variant:normal;font-weight:normal;font-stretch:normal;font-size:medium;line-height:normal;font-family:sans-serif;text-indent:0;text-align:start;text-decoration:none;text-decoration-line:none;text-decoration-style:solid;text-decoration-color:#000000;letter-spacing:normal;word-spacing:normal;text-transform:none;direction:ltr;block-progression:tb;writing-mode:lr-tb;baseline-shift:baseline;text-anchor:start;white-space:normal;clip-rule:nonzero;display:inline;overflow:visible;visibility:visible;opacity:1;isolation:auto;mix-blend-mode:normal;color-interpolation:sRGB;color-interpolation-filters:linearRGB;solid-color:#000000;solid-opacity:1;fill:#ffffff;fill-opacity:1;fill-rule:nonzero;stroke:none;stroke-width:0.84568453;stroke-linecap:round;stroke-linejoin:round;stroke-miterlimit:4;stroke-dasharray:none;stroke-dashoffset:0;stroke-opacity:1;color-rendering:auto;image-rendering:auto;shape-rendering:auto;text-rendering:auto;enable-background:accumulate"
     d="M 14 7 C 13.258801 7 12.616937 7.4116558 12.271484 8.0136719 C 10.780059 8.0776043 9.3545879 8.8818789 8.4550781 10.058594 C 8.3082191 10.024021 8.157124 10 8 10 C 6.898785 10 6 10.898785 6 12 C 6 13.024352 6.7804807 13.863008 7.7753906 13.976562 C 8.2764703 15.163852 9.4522833 15.978192 10.974609 16 C 11.385975 16.005891 11.790852 15.934375 12.1875 15.830078 C 12.504454 16.517833 13.195585 17 14 17 C 15.101215 17 16 16.101215 16 15 C 16 14.409154 15.736091 13.882365 15.326172 13.515625 C 15.605202 13.064123 15.826925 12.58058 15.927734 12.060547 C 16.073197 11.310165 15.975898 10.615369 15.714844 10.011719 C 15.891619 9.713679 16 9.3702931 16 9 C 16 7.8987854 15.101215 7 14 7 z M 14 7.5664062 C 14.795073 7.5664062 15.433594 8.2049275 15.433594 9 C 15.433594 9.795072 14.795073 10.433594 14 10.433594 C 13.204927 10.433594 12.566406 9.795072 12.566406 9 C 12.566406 8.2049275 13.204927 7.5664062 14 7.5664062 z M 12.015625 8.8515625 C 12.011868 8.9014337 12 8.9491988 12 9 C 12 10.101215 12.898785 11 14 11 C 14.37496 11 14.722906 10.889901 15.023438 10.708984 C 15.148238 11.118612 15.184805 11.569036 15.091797 12.048828 C 15.017905 12.430009 14.857263 12.785069 14.660156 13.121094 C 14.452457 13.047678 14.232237 13 14 13 C 12.898785 13 12 13.898785 12 15 C 12 15.020042 12.005268 15.03869 12.005859 15.058594 C 11.720709 15.125428 11.43115 15.174167 11.134766 15.169922 C 10.035423 15.154173 9.1768721 14.636652 8.7207031 13.859375 C 9.466843 13.568532 10 12.84669 10 12 C 10 11.338088 9.6720507 10.75309 9.1738281 10.388672 C 9.8599361 9.536234 10.897786 8.9425457 12.015625 8.8515625 z M 8 10.566406 C 8.795073 10.566406 9.4335938 11.204928 9.4335938 12 C 9.4335938 12.795072 8.795073 13.433594 8 13.433594 C 7.204927 13.433594 6.5664063 12.795072 6.5664062 12 C 6.5664062 11.204928 7.204927 10.566406 8 10.566406 z M 14 13.566406 C 14.795073 13.566406 15.433594 14.204928 15.433594 15 C 15.433594 15.795072 14.795073 16.433594 14 16.433594 C 13.204927 16.433594 12.566406 15.795072 12.566406 15 C 12.566406 14.204928 13.204927 13.566406 14 13.566406 z "
     id="path3923" />
</svg>

<svg xmlns="http://www.w3.org/2000/svg" viewBox="0 0 22 22">
 <path d="m 4 0 c -0.473 0 -1 0.527 -1 1 l 0 20 c 0 0.445 0.555 1 1 1 l 14 0 c 0.445 0 0.992 -0.555 1 -1 l 0 -15 -6 -6" style="fill:#6f72db;fill-opacity:1"/>
 <path d="m 14 6 5 5 0 -5" style="fill:#000;fill-opacity:0.196"/>
 <path d="m 13 0 6 6 l -5 0 c -0.445 0 -1 -0.555 -1 -1 z" style="fill:#fff;fill-opacity:0.392"/>
 <path d="m 14 7 c -0.741 0 -1.383 0.412 -1.729 1.014 c -1.491 0.064 -2.917 0.868 -3.816 2.045 c -0.147 -0.035 -0.298 -0.059 -0.455 -0.059 c -1.101 0 -2 0.899 -2 2 c 0 1.024 0.78 1.863 1.775 1.977 c 0.501 1.187 1.677 2 3.199 2.023 c 0.411 0.006 0.816 -0.066 1.213 -0.17 c 0.317 0.688 1.01 1.17 1.813 1.17 c 1.101 0 2 -0.899 2 -2 c 0 -0.591 -0.264 -1.118 -0.674 -1.484 c 0.279 -0.452 0.501 -0.935 0.602 -1.455 c 0.145 -0.75 0.048 -1.445 -0.213 -2.049 c 0.177 -0.298 0.285 -0.641 0.285 -1.012 c 0 -1.101 -0.899 -2 -2 -2 z m 0 0.566 c 0.795 0 1.434 0.639 1.434 1.434 c 0 0.795 -0.639 1.434 -1.434 1.434 c -0.795 0 -1.434 -0.639 -1.434 -1.434 c 0 -0.795 0.639 -1.434 1.434 -1.434 z m -1.984 1.285 c -0.004 0.05 -0.016 0.098 -0.016 0.148 c 0 1.101 0.899 2 2 2 c 0.375 0 0.723 -0.11 1.023 -0.291 c 0.125 0.41 0.161 0.86 0.068 1.34 c -0.074 0.381 -0.235 0.736 -0.432 1.072 c -0.208 -0.073 -0.428 -0.121 -0.66 -0.121 c -1.101 0 -2 0.899 -2 2 c 0 0.02 0.005 0.039 0.006 0.059 c -0.285 0.067 -0.575 0.116 -0.871 0.111 c -1.099 -0.016 -1.958 -0.533 -2.414 -1.311 c 0.746 -0.291 1.279 -1.013 1.279 -1.859 c 0 -0.662 -0.328 -1.247 -0.826 -1.611 c 0.686 -0.852 1.724 -1.446 2.842 -1.537 z m -4.02 1.715 c 0.795 0 1.434 0.639 1.434 1.434 c 0 0.795 -0.639 1.434 -1.434 1.434 c -0.795 0 -1.434 -0.639 -1.434 -1.434 c 0 -0.795 0.639 -1.434 1.434 -1.434 z m 6 3 c 0.795 0 1.434 0.639 1.434 1.434 c 0 0.795 -0.639 1.434 -1.434 1.434 c -0.795 0 -1.434 -0.639 -1.434 -1.434 c 0 -0.795 0.639 -1.434 1.434 -1.434 z" mix-blend-mode="normal" isolation="auto" white-space="normal" solid-opacity="1" solid-color="#000000" style="visibility:visible;shape-rendering:auto;color-interpolation-filters:linearRGB;fill:#fff;opacity:1;image-rendering:auto;fill-opacity:1;stroke:none;display:inline;color:#000;fill-rule:nonzero;color-rendering:auto;color-interpolation:sRGB"/>
</svg>
